X:1
T:Title
%%score { 1 | 2 }
L:1/8
M:4/4
K:F
V:1 treble nm="Grand Piano"
V:2 bass 
V:1
 z4 z2[Q:1/4=100] C>F | A2 A4 C>F | A2 A4 F>A | c3 c A2 F2 |[M:3/4] [EG]6 |[M:1/4] [EG]>[FA] | %6
[M:4/4] [GB]2 [GB]4 [Ac]>[GB] | A2 A4 B>A | [DG] D2 [DF] F2 E2 |[M:3/4] F6 |[M:1/4] FF | %11
[M:4/4] d d3 d d3 | [Bd]2 [Ac]>[_A=B] [=Ac]4 | [Ac] [GB]2 [GB] [Ac][Ac] [GB]2 |[M:3/4] A6 | %15
[M:1/4] c2 |[M:4/4] d d3 f d3 | [Ac]>[Bd] [Ac]>A F2 F2 | c c2 [DFB] [CFA]2 [B,EG]2 | %19
[M:3/4] [A,F]6 |] %20
V:2
 z4 z2 [F,A,]>[F,A,C] | [F,CF]2 [F,CF]4 [F,A,]>[F,A,C] | [F,CF]2 [F,CF]4 [F,A,]>[F,CF] | %3
 [F,A,F]3 [F,A,F] [F,CF]2 [F,A,]2 |[M:3/4] [C,C]6 |[M:1/4] [C,C]>[C,C] | %6
[M:4/4] [C,C]2 [C,C]4 [C,C]>[C,C] | [F,CF]2 [F,CF]4 [F,DF]>[F,CF] | %8
 [B,,B,] [B,,B,]2 [B,,B,] [C,A,C]2 [C,B,C]2 |[M:3/4] [F,A,C]6 |[M:1/4] [F,A,][F,A,] | %11
[M:4/4][K:treble] [B,F] [B,F]3 [B,DF] [B,DF]3 | [F,F]2[K:bass] [F,C]>[F,C] [F,C]4 | %13
 [C,C] [C,C]2 [C,C] [C,C][C,C] [E,C]2 |[M:3/4][K:treble] [F,CF]6 |[M:1/4] [F,A,F]2 | %16
[M:4/4] [B,F] [B,F]3 [B,DF] [B,DF]3 | [F,F]>[F,F] [F,F]>[F,CF] [F,A,]2 [F,A,]2 | %18
 [F,A,F] [F,A,F]2 B,, C,2 C,2 |[M:3/4] F,6 |] %20

